X:8952
T:La Guinguette (N. Pignol)
M:3/4
L:1/8
K:C
Ac-e- ceA dfce|zB-d- BdG ceBd|\
zA-c- AcF AcF|zE (3GBc de|\
Ac-e- ceA dfce|zB-d- BdG ceBd|\
zA-c- AcF AcF|E6A6c6:|
c2-e2- cef ec|B2-d2- Bdc BG|\
z2 (3ABc de|ze de- e2|\
c2-e2- cef ec|B2-d2- Bdc BG|\
zc BA Bc|A2 E4A4:|
AA-e- AeA AdA|B2-d2- Bdc BG|\
z2 (3ABc de|ze de- e2|\
AA-e- AeA AdA|B2-d2- Bdc BG|\
zc BA Bc|A2 E4A4:|\
(3eGc (3gGc (3eGc|(3dGB (3gGB (3dGB|\
(3ABc (3ded (3cBA|(3edc (3Bcd (3edB|\
(3eGc (3gGc (3eGc|(3dGB (3gGB (3dGB|\
zc BA Bc|A2 E4A4:|\
c2- cd cB-|B2-Bc (3dcB|\
zA (3Bcd ef|d2-dg (3fed|\
c2- cd cB-|B2-Bc (3dcB|\
zc BA Bc|A2 E4A4:|
(3eEe (3eEe (3eEe|(3dEd (3dEd (3dEd|\
(3cEc (3cEc (3cEc|
